universal/android/calendar-x.svg

<svg width="25" height="24" viewBox="0 0 25 24" fill="none" xmlns="http://www.w3.org/2000/svg">
<path fill-rule="evenodd" clip-rule="evenodd" d="M19.1693 5.66667H4.83598V20H19.1693V5.66667ZM2.83598 3.66667V22H21.1693V3.66667H2.83598Z" fill="black"/>
<path fill-rule="evenodd" clip-rule="evenodd" d="M6.16931 4.5V2L8.16931 2V4.5H6.16931Z" fill="black"/>
<path fill-rule="evenodd" clip-rule="evenodd" d="M16.1693 4.5V2L18.1693 2V4.5H16.1693Z" fill="black"/>
<path d="M14.1273 9.37476L15.5415 10.789L9.88466 16.4458L8.47045 15.0316L14.1273 9.37476Z" fill="black"/>
<path d="M8.47045 10.7808L9.88467 9.36661L15.5415 15.0235L14.1273 16.4377L8.47045 10.7808Z" fill="black"/>
</svg>

<svg xmlns="http://www.w3.org/2000/svg" viewBox="0 0 25 24"><path fill-rule="evenodd" clip-rule="evenodd" d="M19.17 5.667H4.835V20h14.333V5.667zm-16.334-2V22h18.333V3.667H2.836z"/><path fill-rule="evenodd" clip-rule="evenodd" d="M6.17 4.5V2h2v2.5h-2zM16.17 4.5V2h2v2.5h-2z"/><path d="M14.127 9.375l1.414 1.414-5.656 5.657-1.415-1.414 5.657-5.657z"/><path d="M8.47 10.78l1.415-1.413 5.656 5.656-1.414 1.415L8.47 10.78z"/></svg>
